icon/ir/ruler-add.svg

<svg stroke-width="1.5" viewBox="0 0 24 24" fill="none" xmlns="http://www.w3.org/2000/svg" height="1em" width="1em">
  <path d="M15 5H18M21 5H18M18 5V2M18 5V8" stroke="currentColor" stroke-linecap="round" stroke-linejoin="round"/>
  <path d="M11 7V2.6C11 2.26863 10.7314 2 10.4 2H3.6C3.26863 2 3 2.26863 3 2.6V21.4C3 21.7314 3.26863 22 3.6 22H10.4C10.7314 22 11 21.7314 11 21.4V17M11 7H8M11 7V12M11 12H8M11 12V17M11 17H8" stroke="currentColor" stroke-linecap="round" stroke-linejoin="round"/>
</svg>

<svg width="24" height="24" stroke-width="1.5" fill="none" xmlns="http://www.w3.org/2000/svg"><path d="M15 5h3m3 0h-3m0 0V2m0 3v3M11 7V2.6a.6.6 0 0 0-.6-.6H3.6a.6.6 0 0 0-.6.6v18.8a.6.6 0 0 0 .6.6h6.8a.6.6 0 0 0 .6-.6V17m0-10H8m3 0v5m0 0H8m3 0v5m0 0H8" stroke="currentColor" stroke-linecap="round" stroke-linejoin="round"/></svg>
